Suru++-Ubuntu/places/symbolic/audio-x-playlist-recently-added-symbolic.svg

<svg width="16" height="16" version="1.1" xmlns="http://www.w3.org/2000/svg">
 <g transform="translate(-392 -112)">
  <path transform="translate(392,112)" d="m7.5 1c-1.978 0-3.769375 0.7685781-5.109375 2.0175781l-1.0253906-1.0253906a34.471 34.471 0 0 0-0.6464844 1.9824219 41.553 41.553 0 0 0-0.53125 2.0253906c0.669-0.15 1.34625-0.3254375 2.03125-0.5234375 0.69-0.203 1.3486094-0.4202969 1.9746094-0.6542969l-1.09375-1.0957031a6.466 6.466 0 0 1 4.4003906-1.7265625c3.594 0 6.5 2.906 6.5 6.5 0 0.8317725-0.161507 1.622938-0.445312 2.353516h1.064453c0.244209-0.740584 0.380859-1.5303493 0.380859-2.353516 0-4.147-3.353-7.5-7.5-7.5zm-0.5 3v5.2070312l2.3964844 2.3964848 0.7070316-0.707032-2.103516-2.1035152v-4.7929688h-1zm-6.9746094 5a7.488 7.488 0 0 0 7.4746094 7c0.9911458 0 1.9352825-0.194842 2.800781-0.542969v-1.095703c-0.8488451 0.405896-1.7958759 0.638672-2.800781 0.638672a6.49 6.49 0 0 1-6.4746094-6h-0.99999998zm0.86523438 5.974609c-3e-3 5e-3 -0.01067188 0.009672-0.01367188 0.013672l-0.01367187 0.021485 0.02734375-0.035157z" style="fill:#808080"/>
 </g>
 <rect x="12" y="11" width="1" height="5" style="fill:#808080"/>
 <rect transform="matrix(0,1,1,0,0,0)" x="13" y="10" width="1" height="5" style="fill:#808080"/>
</svg>

<svg xmlns="http://www.w3.org/2000/svg" width="16" height="16" version="1.1">
 <g transform="translate(-392 -112)">
  <path style="fill:#808080" d="M 7.5 1 C 5.522 1 3.730625 1.7685781 2.390625 3.0175781 L 1.3652344 1.9921875 A 34.471 34.471 0 0 0 0.71875 3.9746094 A 41.553 41.553 0 0 0 0.1875 6 C 0.8565 5.85 1.53375 5.6745625 2.21875 5.4765625 C 2.90875 5.2735625 3.5673594 5.0562656 4.1933594 4.8222656 L 3.0996094 3.7265625 A 6.466 6.466 0 0 1 7.5 2 C 11.094 2 14 4.906 14 8.5 C 14 9.3317725 13.838493 10.122938 13.554688 10.853516 L 14.619141 10.853516 C 14.86335 10.112932 15 9.3231667 15 8.5 C 15 4.353 11.647 1 7.5 1 z M 7 4 L 7 9.2070312 L 9.3964844 11.603516 L 10.103516 10.896484 L 8 8.7929688 L 8 4 L 7 4 z M 0.025390625 9 A 7.488 7.488 0 0 0 7.5 16 C 8.4911458 16 9.4352825 15.805158 10.300781 15.457031 L 10.300781 14.361328 C 9.4519359 14.767224 8.5049051 15 7.5 15 A 6.49 6.49 0 0 1 1.0253906 9 L 0.025390625 9 z M 0.890625 14.974609 C 0.887625 14.979609 0.87995312 14.984281 0.87695312 14.988281 L 0.86328125 15.009766 L 0.890625 14.974609 z" transform="translate(392,112)"/>
 </g>
 <rect width="1" height="5" x="12" y="11" style="fill:#808080"/>
 <rect style="fill:#808080" width="1" height="5" x="13" y="10" transform="matrix(0,1,1,0,0,0)"/>
</svg>
